-----BEGIN PGP MESSAGE-----

hQGMAwb8c/e16X3DAQv/bImyIGc3/DO3fACDz2FOis6uaXPmjy/Inr+Ze2Ec4and
H2MYa7UFY6yIc/1r87jCNHeD94qqsxzhS8HRiG4ewmeJPMMmK+pCK0peLLSyYXJf
rO7QuKwpLZyo0LXEHjseF5lrk+hJ3Qbf9c0xuvJSPq+xWmjBrN/kWFLdukeYy+5q
+QTjnXiIoexkDKLkWmSIvUe97Z7lH5quqb2DN6VHLlqFx7bS19ZgP20d8UzOkuyi
RpES+7GPKfOewTyQI2kQEx9Z5i9s8R4+6EKR4OBWHIXyjjCjT4J5Lv39limcDQu2
04OicHoEL1rTKPxnSe+eDtWuS38Iip7FplROQKWcYctxa2OWmOCodH7INYHCX3Ij
y0yC8L4clTjtP8mqL7XnpONTuQbonMfMqO7yTg2RYN6PZj97BHHp9QT+srIXn96X
uUVbvFoXKIJg4/QW8dQXqTzhDHc3cIZrLxp6zOq2g4Bb1GlorannTodEkV/waXHl
SWEhMCe9WRqpZYpgAwv90uoBy8d91b671+QQXnwh80AiZuoD4wQIkkIrqA2ARgLA
KxO3mFFjvp9LzNgYEEbTBIbJfvGtRLGtmTEDRjPEP39IK42hsWPAJebaHyFV/XTD
z70FwEqc8TqEUzCsM3MWG4r886djp4/UJzlKVQzC6Wm2kkCYXLM/2xwSQia4phzb
pSFeUfudArWYzJPvub3ayCky6JS0wN65s4Y0Q7kJu9qumNcyPOZAOxHuh99kAMdn
OYBnP6LA4l2WPh2u/LLbMuHDwuM5WaCN6Fjdu38xTbBQh5nsPobvCMBEKL/JPZDb
rwk2F29zLffISz5oUnMVToixip9Fgco+sp9DQNeqAk+bbvugeojGJQI8+NWD7lJg
tU9dPgWMEWoTo8hmjYNj69E0Swfs/Le2cbIGZm9QdwJ2AghbJuOGwvbvEeCxF/Ky
x94SzXXfdvnMwHaG3y0pO7bYpG2aoAOr9metRTMRe7d76m69uwJ3x375ea6whWgI
H+qEiR/jhg+NcvXgr2aeXUutoMSx9BSzB2QWqH+Vxo67vkxBsMQzVfSGUC1fagQb
qwFef0wSQqff73ClcV/dHdX2tIxJEdR9m2nn+aEk9/cEPNcA/daLvSDAGPkkwK4L
IBxOjesOeKJ/CbzT4tjlLsQPaZ2BwzhBz1QhQZAPpmyuAGQzKqv0JJ69Mmw/ShX6
FcF4RdyJz8f7IXnRroo6wsJV0eKq+s6wZdD0IQHOmtDzg/cWWub/QSagm4omb/+2
CyWDY4MGKKVIoflx3wVps4gJskh8zxG4tvTnq7+rkijWq3V8KEcekAOHlOqXE2Da
4J8PelPmUJoW1V74J4fm0GUfNkgwJcyVEFciRDD+03YGKzrJoXf7fCoJyKjXd0FT
dnKjsEcD+hzbjIETGHMRVGuNpZbnr07TLlo/iyzVoCJyFCD4cwGjuHBtKeR5JFr6
6xw/h0XI/SIbNdoORsWQhvMfwS+qlPcx6jUSKTyQ51vsBKXvKKh7aMHScuvS5LpU
h/CCXm5VfQTIhH87aS64YFhx0rpBsf6a3Vvy1UXtC+J4HMbw6qt+mqEQUkiSZu2l
4WaMbQNDYUkFkpo5Fyg39nCchyAIwElmz8CYc/JbUbnnFzw4AEaYcxsoS/1gEUqB
32gr6PaxVe12LT83sQliS5oc+VuqZs+v5nEz5mL+4xLpkGg/hiIJm7iZmmng6jEh
tPqUbjlbTqjB8x2c//YoqhZ9VTUbKP0MzhGEBBhXQcsI2r6UmQ6oQ8XnnQUkh7vV
gIBakuhDMPOV3GsjMBOMWoQm+hD3Ew9jypbSzeD2g/2gco9EAYgqpiTa2QZdWAnF
tTOHvXRN9tWJMb1yuD//g+U1FK0rioLPC2iKEPrHQZIjwJP9gbYMcQgUjx6NDFQh
f7PjZbin3imwc57aqTUHh/6geSJQRH9kqD3VtLJ1KeQs4AfZBX2VrKcFf5V3ja0P
VTP5qlgPnx99BKWai2y063eq7xH18yomF8XCGXyJUniWm91xcqkGL9X6ldvqdIPU
CaQ//x5pEoQtklURPkO9LPUZkMp0vX84nlZchvXOR0L8Af3c2vctj0mQq4kel8YB
Gg5MOTP9fZltUGkcjW/f78Qu+7PlHwiIImPxm9LyChqHambwg6T404FVtckevz2D
/m7dr1ND20VzudLK/rTD8OmdfgvrD/UBIXLyWuOf5awOgG9AkAxqDThv5N5fIvCw
PYX+WsDrABrBXnIhiw8srnyniKBsU8dREKPEu+Wx138VeQJqVkeTQBG+FSQsWynM
+1DfSifCgCaiB0J3CXG0CmieqXCGD7kPy04OlCH0LujMHsPLAEo=
=WneD
-----END PGP MESSAGE-----
